svgs/sharp-solid/brain-arrow-curved-right.svg

<svg xmlns="http://www.w3.org/2000/svg" viewBox="0 0 640 512"><!--! Font Awesome Pro 6.6.0 by @fontawesome - https://fontawesome.com License - https://fontawesome.com/license (Commercial License) Copyright 2024 Fonticons, Inc. --><path d="M240 0l0 56 0 400 0 56-56 0c-28.9 0-52.7-21.9-55.7-50.1c-5.2 1.4-10.7 2.1-16.3 2.1c-35.3 0-64-28.7-64-64c0-7.4 1.3-14.6 3.6-21.2C21.4 367.4 0 338.2 0 304c0-31.9 18.7-59.5 45.8-72.3C37.1 220.8 32 207 32 192c0-30.7 21.6-56.3 50.4-62.6C80.8 123.9 80 118 80 112c0-29.9 20.6-55.1 48.3-62.1C131.3 21.9 155.1 0 184 0l56 0zm32 0l56 0c28.9 0 52.6 21.9 55.7 49.9c27.8 7 48.3 32.1 48.3 62.1c0 6-.8 11.9-2.4 17.4c28.8 6.2 50.4 31.9 50.4 62.6c0 15-5.1 28.8-13.8 39.7c4.9 2.3 9.5 5.1 13.8 8.3l0 32-32 0c-79.5 0-144 64.5-144 144c0 42.7 21.1 74 40.3 93.6c-5.2 1.6-10.7 2.4-16.3 2.4l-56 0 0-56 0-400 0-56zM528 240L640 352 528 464l-16 0 0-64-48 0c-35.3 0-64 28.7-64 64l0 48s-64-32-64-96c0-61.9 50.1-112 112-112l64 0 0-64 16 0z"/></svg>

<svg xmlns="http://www.w3.org/2000/svg" viewBox="0 0 640 512"><!--! Font Awesome Pro 6.4.0 by @fontawesome - https://fontawesome.com License - https://fontawesome.com/license (Commercial License) Copyright 2023 Fonticons, Inc. --><path d="M240 0V56 456v56H184c-28.9 0-52.7-21.9-55.7-50.1c-5.2 1.4-10.7 2.1-16.3 2.1c-35.3 0-64-28.7-64-64c0-7.4 1.3-14.6 3.6-21.2C21.4 367.4 0 338.2 0 304c0-31.9 18.7-59.5 45.8-72.3C37.1 220.8 32 207 32 192c0-30.7 21.6-56.3 50.4-62.6C80.8 123.9 80 118 80 112c0-29.9 20.6-55.1 48.3-62.1C131.3 21.9 155.1 0 184 0h56zm32 0h56c28.9 0 52.6 21.9 55.7 49.9c27.8 7 48.3 32.1 48.3 62.1c0 6-.8 11.9-2.4 17.4c28.8 6.2 50.4 31.9 50.4 62.6c0 15-5.1 28.8-13.8 39.7c4.9 2.3 9.5 5.1 13.8 8.3v32H448c-79.5 0-144 64.5-144 144c0 42.7 21.1 74 40.3 93.6c-5.2 1.6-10.7 2.4-16.3 2.4H272V456 56 0zM528 240L640 352 528 464H512V400H464c-35.3 0-64 28.7-64 64v48s-64-32-64-96c0-61.9 50.1-112 112-112h64V240h16z"/></svg>
